X: 366
T: Celia O'Gara
M:3/4
L:1/4
B:O'Neill's 366
N:"Moderate."
N:"collected by F. O'Neill."
Z:Transcribed by Chris Falt, cfalt@trytel.com
K:G
B/2A/2|.G.B.B|.A.c.c|.G.B.B|(c2B/2A/2)|
.G.B.d|cAd|BGG|G2||
D|(G/2A/2)(B/2c/2)(d/2e/2)|(=f2a/2g/2)|^fdB|(c2B/2A/2)|
GBd|(g2a/2g/2)|fdf|g2(B/2A/2)|
.G.B.B|.A.c.c|.G.B.B|.c.e.g|
(e/2d/2) (c/2B/2) (A/2G/2)|(F/2G/2) (A/2B/2) (C/2A/2)|BGG|G2||


